X:1
T:Killer Joe
C:1977 - Benny Golson
Z:Copyright © www.realbook.site
L:1/8
M:4/4
I:linebreak $
K:C
V:1 treble nm=" " snm=" "
V:1
"C7" z4 F2 EG- |"Bb7" (G8 |"C7" G4) E2 C_B,- |"Bb7" B,8 |$"C7" z4 F2 EG- |"B7" G6 EG- |"C7" (G8 | %7
"Bb7" G6) z2 :|$"Em7b5" G8- |"A7" G4 A4 |"Ebm7" _B8- |"Ab7" B4 c4 |$"A7" _d8- |"Ab7" d4 _e4 | %14
"Em7" _e8- |"A7" e4 z4 ||$"C7" z4 F2 =EG- |"Bb7" (G8 |"C7" G4) E2 C_B,- |"Bb7" B,8 |$ %20
"C7" z4 F2 EG- |"Bb7" G6 EG- |"C7" (G8 |"Bb7" G4) z4 |] %24

